X: 131610
T: Mulqueen's [HP]
T: Cornph\'iopa U\'i Mhaolchaoine
S: B.Breathnach:"Ceol Rince na hEireann" III/211 
Z: B.Black
L: 1/8
M: 4/4
R: hornpipe
K: G
(3GBd g2 fedf|eAce d2 gf|e2 ce dG (3Bcd|cBAG F2 D2|
(3GBd ge fedf|eAce d2 gf|e2 ce dG (3Bcd|cAFD G3z :|
(3GBd g2 (3GBd g2|(3GBd gB eB d2|(3FAc f2 (3FAc f2|\
FAfe (3ded (3cBA|
(3GBd g2 (3GBd g2|(3GBd gB eBdg|f2 ed eAce|1\
dgfe (3ded (3cBA :|
|2 dgfe defg|: a2 ba afab|afab a2 fe|defg adfa|bfge defg|
a2 ba afab|afab a2 fe|de (3fed (3Bcd AF|1 G2 (3Bcd defg :|2\
G2 (3Bcd gedB ||
